src/categories-icons-sprite/categories/svg-cat-accessories-bijouterie.svg

<svg width="29" height="30" viewBox="0 0 29 30" fill="none" xmlns="http://www.w3.org/2000/svg">
<path class="p-FF637B" d="M13.4172 29.9998H9.79188L9.08788 28.9087L8.03202 29.9998H6.27216L5.35697 28.6447L4.51229 29.9999H0L2.75243 14.1025C2.75243 14.1025 4.12518 13.1286 5.39222 12.2839H9.36952L11.5517 14.1025L13.4172 29.9998Z" fill="#A1D1FD"/>
<path class="p-FF637B" d="M27.4961 29.9998H23.8707L23.1667 28.9087L22.1109 29.9998H20.351L19.4358 28.6447L18.5911 29.9999H14.9658L16.8313 14.1025C16.8313 14.1025 18.204 13.1286 19.4711 12.2839H23.4484L25.6306 14.1025L27.4961 29.9998Z" fill="#A1D1FD"/>
<path class="p-E63950" d="M13.4175 29.9999H9.79214L9.08814 28.9088L8.03228 29.9999H7.15234V12.2839H9.36977L11.552 14.1025L13.4175 29.9999Z" fill="#65B3E7"/>
<path class="p-E63950" d="M28.3835 29.9999H23.8712L23.1672 28.9088L22.1114 29.9999H21.2314V12.2839H23.4489L25.6311 14.1025L28.3835 29.9999Z" fill="#65B3E7"/>
<path class="p-F2F2F2" d="M10.2676 7.47942C9.44041 8.30662 8.3317 8.76418 7.15259 8.76418V7.00432C7.85659 7.00432 8.52534 6.72268 9.01805 6.22998C10.0564 5.2092 10.0564 3.51973 9.01805 2.49907C8.52534 2.00625 7.839 1.74232 7.15259 1.74232C6.46618 1.74232 5.77984 2.00625 5.28713 2.49907C5.00274 2.78339 4.78871 3.12635 4.65854 3.50087C4.499 3.95991 4.11883 4.36452 3.63286 4.36452C3.14689 4.36452 2.74378 3.96679 2.83863 3.49017C3.00691 2.64464 3.41885 1.86832 4.03757 1.2495C4.86483 0.422485 6.00868 0 7.15265 0C8.29662 0 9.44047 0.422485 10.2677 1.24956C11.9746 2.97417 11.9923 5.75481 10.2676 7.47942Z" fill="#B9DFFC"/>
<path class="p-D3D3D8" d="M10.2674 7.47942C9.44017 8.30662 8.33145 8.76418 7.15234 8.76418V7.00432C7.85635 7.00432 8.5251 6.72268 9.0178 6.22998C10.0562 5.2092 10.0562 3.51973 9.0178 2.49907C8.5251 2.00625 7.83875 1.74232 7.15234 1.74232V0C8.29631 0 9.44017 0.422485 10.2674 1.24956C11.9744 2.97417 11.992 5.75481 10.2674 7.47942Z" fill="#76B7E2"/>
<path class="p-F2F2F2" d="M24.3467 7.47942C23.5195 8.30662 22.4108 8.76418 21.2317 8.76418V7.00432C21.9357 7.00432 22.6044 6.72268 23.0971 6.22998C24.1355 5.2092 24.1355 3.51973 23.0971 2.49907C22.6044 2.00625 21.9181 1.74232 21.2317 1.74232C20.5453 1.74232 19.8589 2.00625 19.3662 2.49907C19.0818 2.78339 18.8678 3.12635 18.7376 3.50087C18.5781 3.95991 18.1979 4.36452 17.712 4.36452C17.226 4.36452 16.8229 3.96679 16.9177 3.49017C17.086 2.64464 17.4979 1.86832 18.1167 1.2495C18.9439 0.422485 20.0878 0 21.2317 0C22.3757 0 23.5196 0.422485 24.3468 1.24956C26.0537 2.97417 26.0714 5.75481 24.3467 7.47942Z" fill="#B9DFFC"/>
<path class="p-D3D3D8" d="M24.3465 7.47942C23.5193 8.30662 22.4106 8.76418 21.2314 8.76418V7.00432C21.9354 7.00432 22.6042 6.72268 23.0969 6.22998C24.1353 5.2092 24.1353 3.51973 23.0969 2.49907C22.6042 2.00625 21.9179 1.74232 21.2314 1.74232V0C22.3754 0 23.5193 0.422485 24.3465 1.24956C26.0535 2.97417 26.0711 5.75481 24.3465 7.47942Z" fill="#76B7E2"/>
<path class="p-FBC56D" d="M10.2676 8.30669C9.44041 7.46202 8.3493 7.00439 7.15259 7.00439C4.72398 7.00439 2.75293 8.97544 2.75293 11.4041V14.1025H11.5522V11.4041C11.5523 10.2073 11.0947 9.11629 10.2676 8.30669Z" fill="#B9DFFC"/>
<path class="p-EBAE56" d="M11.552 11.4041V14.1025H7.15234V7.00439C8.34905 7.00439 9.44017 7.46196 10.2674 8.30669C11.0944 9.11629 11.552 10.2073 11.552 11.4041Z" fill="#A1D1FD"/>
<path class="p-FBC56D" d="M24.3467 8.30669C23.5195 7.46202 22.4284 7.00439 21.2317 7.00439C18.8031 7.00439 16.832 8.97544 16.832 11.4041V14.1025H25.6314V11.4041C25.6314 10.2073 25.1738 9.11629 24.3467 8.30669Z" fill="#B9DFFC"/>
<path class="p-EBAE56" d="M25.6311 11.4041V14.1025H21.2314V7.00439C22.4282 7.00439 23.5193 7.46196 24.3465 8.30669C25.1735 9.11629 25.6311 10.2073 25.6311 11.4041Z" fill="#A1D1FD"/>
<path class="p-E63950" d="M6.27158 29.9998V22.0218C6.27158 21.5358 5.87762 21.1418 5.39165 21.1418C4.90568 21.1418 4.51172 21.5358 4.51172 22.0218V29.9998H6.27158Z" fill="#58ADE5"/>
<path class="p-AE2538" d="M9.79209 29.9998V22.0218C9.79209 21.5358 9.39813 21.1418 8.91216 21.1418C8.42619 21.1418 8.03223 21.5358 8.03223 22.0218V29.9998H9.79209Z" fill="#4D98CB"/>
<path class="p-E63950" d="M20.3507 29.9998V22.0218C20.3507 21.5358 19.9567 21.1418 19.4708 21.1418C18.9848 21.1418 18.5908 21.5358 18.5908 22.0218V29.9998H20.3507Z" fill="#58ADE5"/>
<path class="p-AE2538" d="M23.8712 29.9998V22.0218C23.8712 21.5358 23.4772 21.1418 22.9913 21.1418C22.5053 21.1418 22.1113 21.5358 22.1113 22.0218V29.9998H23.8712Z" fill="#4D98CB"/>
</svg>

<svg width="29" height="30" fill="none" xmlns="http://www.w3.org/2000/svg"><path class="p-FF637B" d="M13.417 30H9.792l-.704-1.091-1.056 1.09h-1.76l-.915-1.354L4.512 30H0l2.752-15.898s1.373-.973 2.64-1.818H9.37l2.182 1.818L13.417 30zM27.496 30h-3.625l-.704-1.091-1.056 1.09h-1.76l-.915-1.354L18.59 30h-3.625l1.865-15.898s1.373-.973 2.64-1.818h3.977l2.183 1.818L27.496 30z" fill="#A1D1FD"/><path class="p-E63950" d="M13.418 30H9.792l-.704-1.091-1.056 1.09h-.88V12.285H9.37l2.182 1.818L13.418 30zM28.384 30H23.87l-.704-1.091-1.056 1.09h-.88V12.285h2.218l2.182 1.818L28.384 30z" fill="#65B3E7"/><path class="p-F2F2F2" d="M10.268 7.48a4.379 4.379 0 01-3.115 1.284v-1.76c.704 0 1.372-.281 1.865-.774a2.624 2.624 0 000-3.73 2.65 2.65 0 00-1.865-.758 2.65 2.65 0 00-1.866.757 2.644 2.644 0 00-.628 1.002c-.16.459-.54.864-1.026.864s-.89-.398-.794-.875a4.365 4.365 0 011.199-2.24C4.865.422 6.008 0 7.153 0c1.144 0 2.287.422 3.115 1.25 1.707 1.724 1.724 4.505 0 6.23z" fill="#B9DFFC"/><path class="p-D3D3D8" d="M10.267 7.48a4.379 4.379 0 01-3.115 1.284v-1.76c.704 0 1.373-.281 1.866-.774a2.624 2.624 0 000-3.73 2.65 2.65 0 00-1.866-.758V0c1.144 0 2.288.422 3.115 1.25 1.707 1.724 1.725 4.505 0 6.23z" fill="#76B7E2"/><path class="p-F2F2F2" d="M24.347 7.48a4.379 4.379 0 01-3.115 1.284v-1.76c.704 0 1.372-.281 1.865-.774a2.624 2.624 0 000-3.73 2.65 2.65 0 00-1.865-.758 2.65 2.65 0 00-1.866.757 2.645 2.645 0 00-.628 1.002c-.16.459-.54.864-1.026.864s-.89-.398-.794-.875a4.364 4.364 0 011.199-2.24C18.944.422 20.087 0 21.232 0c1.144 0 2.288.422 3.115 1.25 1.707 1.724 1.724 4.505 0 6.23z" fill="#B9DFFC"/><path class="p-D3D3D8" d="M24.346 7.48a4.379 4.379 0 01-3.115 1.284v-1.76c.704 0 1.373-.281 1.866-.774a2.624 2.624 0 000-3.73 2.65 2.65 0 00-1.866-.758V0c1.144 0 2.288.422 3.115 1.25 1.707 1.724 1.725 4.505 0 6.23z" fill="#76B7E2"/><path class="p-FBC56D" d="M10.268 8.307a4.295 4.295 0 00-3.115-1.303 4.401 4.401 0 00-4.4 4.4v2.698h8.8v-2.698a4.279 4.279 0 00-1.285-3.097z" fill="#B9DFFC"/><path class="p-EBAE56" d="M11.552 11.404v2.698h-4.4V7.004c1.197 0 2.288.458 3.115 1.303a4.28 4.28 0 011.285 3.097z" fill="#A1D1FD"/><path class="p-FBC56D" d="M24.347 8.307a4.295 4.295 0 00-3.115-1.303 4.401 4.401 0 00-4.4 4.4v2.698h8.8v-2.698a4.279 4.279 0 00-1.285-3.097z" fill="#B9DFFC"/><path class="p-EBAE56" d="M25.631 11.404v2.698h-4.4V7.004c1.197 0 2.288.458 3.115 1.303a4.28 4.28 0 011.285 3.097z" fill="#A1D1FD"/><path class="p-E63950" d="M6.272 30v-7.978a.88.88 0 10-1.76 0V30h1.76z" fill="#58ADE5"/><path class="p-AE2538" d="M9.792 30v-7.978a.88.88 0 10-1.76 0V30h1.76z" fill="#4D98CB"/><path class="p-E63950" d="M20.35 30v-7.978a.88.88 0 10-1.76 0V30h1.76z" fill="#58ADE5"/><path class="p-AE2538" d="M23.871 30v-7.978a.88.88 0 10-1.76 0V30h1.76z" fill="#4D98CB"/></svg>
